X: 35324
T: Rosemary And Rue
R: reel
M: 4/4
K: Amajor
c|"A"eeec "Em9"d3B|"G9"ddde"A"c3c|"Hsus4/F#"cBBA "H7"B3A|"E7sus4"BBBc"E7"B3c|
"A"eeec"Em9"d3B|"G9"ddde"A"c3c|"Hsus4/F#"cBBA"H7"B3A|"E7sus4"BBBc"E7"e3z|
"Hm7"z3f "E7"feed|"C#m7b5"c4"F#7"z4|"Hm7"z2dd "E7"de2d|"AMaj7"e4"A#dim"z4|
"Hm7"z3f "E7"feed|"A"cBcd "Hsus4/F#"e3B|"H7"B3c"E7sus4"B3A|"D/A"A4"A"A4||

